packages/gestalt-icons-android/vr-theme/ic_vr_add-pin_gestalt.svg

<svg width="24" height="24" viewBox="0 0 24 24" fill="none" xmlns="http://www.w3.org/2000/svg">
<path d="M21.2929 10.7072L22.2929 11.7072L23.7071 10.293L22.7071 9.29297L22.7008 9.28667L13.7071 0.292969L12.2929 1.70718L13.2929 2.70718L13.2966 2.7109C14.0069 3.42524 14.0057 4.58016 13.2929 5.29296L11.4062 7.17968L10.8753 6.78156C8.88474 5.28862 6.09928 5.48658 4.33982 7.24603L2.7929 8.79295C2.60536 8.98048 2.5 9.23484 2.5 9.50005C2.5 9.76527 2.60536 10.0196 2.79289 10.2072L7.58563 14.9999L5.6531 16.9318C4.38018 18.2044 3.26823 19.6283 2.34218 21.1717L2.14551 21.4995L2.49906 21.853L2.83032 21.6543C4.37144 20.7296 5.79345 19.6196 7.06455 18.349L9.00004 16.4143L11.0429 18.4572L12.4571 17.0429L4.91422 9.50006L5.75403 8.66024C6.80971 7.60458 8.48098 7.4858 9.67534 8.38156L11.5938 9.82043L14.7071 6.70718C15.1754 6.23894 15.4969 5.67958 15.6719 5.08619L18.9139 8.32818C18.3205 8.50313 17.7611 8.82472 17.2929 9.29296L14.0858 12.5001L15.5 13.9143L18.7071 10.7072C19.4197 9.99458 20.5742 9.99314 21.2886 10.7029L21.2929 10.7072Z" fill="black"/>
<path d="M18 24V20H14V18H18V14H20V18H24V20H20V24H18Z" fill="black"/>
</svg>

<svg xmlns="http://www.w3.org/2000/svg" width="24" height="24"><path d="m21.3 10.7 1 1 1.4-1.4-1-1v-.01l-9-9-1.4 1.42 1 1c.7.72.7 1.87 0 2.58l-1.9 1.89-.52-.4a5 5 0 0 0-6.54.47L2.79 8.79a1 1 0 0 0 0 1.42L7.6 15l-1.94 1.93a22 22 0 0 0-3.3 4.24l-.2.33.35.35.33-.2a22 22 0 0 0 4.23-3.3L9 16.4l2.04 2.05 1.42-1.42L4.9 9.5l.84-.84a3 3 0 0 1 3.93-.28l1.91 1.44 3.12-3.11q.7-.72.96-1.62l3.24 3.24q-.9.26-1.62.96l-3.2 3.21 1.41 1.41 3.2-3.2a1.83 1.83 0 0 1 2.59 0zM20 24v-4h4v-2h-4v-4h-2v4h-4v2h4v4z"/></svg>
